X:5709
T:Russian 2-step (2)
O:england
R:2-Step
M:4/4
B:Free Reed Book
K:DDor
A2ddd2d2 | ^cdc_B A3A | A2eee2g2 | fgfed3e |\
f2d2f2d2 | efe^cA3a |
|1 a_b ag f2g2 | a2z2a4 \
:|2 a_b ag f2e2 | d4 ||\
K:G
ezg2 || \
f3ed4 | e2ef g2e2 |
fg fe g2d2 |\
e2A2 g2A2 | f3ed3d \
|1 e2d2^c2_B2 | A2z2A4 \
:|2 e2f2g2^g2 | a2z2 a4 |]


